X:601
T:60. NIC'S RUSSIAN TUNE
M:4/4
L:1/4
R:Reel
K:Em
V:1
"Em"E>FG>E|GF/E/"B7"FB,|F>GA>F|AG/F/"Em"Ez|
"Em"B"C"e"G"d"E7"e/d/|"Am"cB/A/"Em"BE|"Am"c>A"Em"B>G|"B7"AG/F/"Em"E2||
V:2
G>AB>G|BA/G/FA|A>Bc>B|cB/A/Gz|
egBB/d/|ed/c/eB|e>cE>B|^de/f/e2||
